;FLAVOR:Marlin
;TIME:3717
;Filament used: 2.49962m
;Layer height: 0.2
;MINX:39.44
;MINY:64.012
;MINZ:0.2
;MAXX:164.504
;MAXY:156
;MAXZ:6.6
;Generated with Cura_SteamEngine 4.4.0
M140 S60
M105
M190 S60
M104 S200
M105
M109 S200
M82 ;absolute extrusion mode
M201 X500.00 Y500.00 Z100.00 E5000.00 ;Setup machine max acceleration
M203 X500.00 Y500.00 Z10.00 E50.00 ;Setup machine max feedrate
M204 P500.00 R1000.00 T500.00 ;Setup Print/Retract/Travel acceleration
M205 X8.00 Y8.00 Z0.40 E5.00 ;Setup Jerk
M220 S100 ;Reset Feedrate
M221 S100 ;Reset Flowrate

G28 ;Home

G92 E0 ;Reset Extruder
G1 Z2.0 F3000 ;Move Z Axis up
G1 X10.1 Y20 Z0.28 F5000.0 ;Move to start position
G1 X10.1 Y200.0 Z0.28 F1500.0 E15 ;Draw the first line
G1 X10.4 Y200.0 Z0.28 F5000.0 ;Move to side a little
G1 X10.4 Y20 Z0.28 F1500.0 E30 ;Draw the second line
G92 E0 ;Reset Extruder
G1 Z2.0 F3000 ;Move Z Axis up

G92 E0
G92 E0
G1 F1500 E-6.5
;LAYER_COUNT:33
;LAYER:0
M107
G0 F6000 X46.742 Y69.025 Z0.2
;TYPE:SKIRT
G1 F1500 E0
G1 F1200 X47.529 Y68.515 E0.03119
G1 X48.357 Y68.073 E0.06241
G1 X49.219 Y67.704 E0.0936
G1 X49.666 Y67.545 E0.10938
G1 X49.893 Y67.47 E0.11733
G1 X50.226 Y67.366 E0.12893
G1 X50.473 Y67.293 E0.1375
G1 X50.56 Y67.268 E0.14051
G1 X59.755 Y64.632 E0.45865
G1 X59.913 Y64.588 E0.46411
G1 X60.63 Y64.394 E0.48881
G1 X61.545 Y64.188 E0.52001
G1 X62.474 Y64.06 E0.5512
G1 X63.411 Y64.012 E0.5824
G1 X64.348 Y64.045 E0.61359
G1 X65.279 Y64.156 E0.64477
G1 X66.198 Y64.347 E0.67599
G1 X67.096 Y64.615 E0.70716
G1 X67.969 Y64.959 E0.73837
G1 X68.809 Y65.376 E0.76956
G1 X69.61 Y65.863 E0.80074
G1 X70.368 Y66.417 E0.83197
G1 X71.075 Y67.033 E0.86316
G1 X71.882 Y67.885 E0.90219
G1 X72.661 Y68.8 E0.94216
G1 X74.393 Y70.782 E1.0297
G1 X76.107 Y72.633 E1.11361
G1 X77.844 Y74.407 E1.19618
G1 X79.684 Y76.182 E1.28122
G1 X81.527 Y77.861 E1.36414
G1 X83.429 Y79.5 E1.44765
G1 X85.41 Y81.11 E1.53255
G1 X87.363 Y82.606 E1.61438
G1 X89.445 Y84.112 E1.69984
G1 X91.502 Y85.512 E1.7826
G1 X93.622 Y86.87 E1.86634
G1 X95.785 Y88.169 E1.95026
G1 X97.988 Y89.409 E2.03434
G1 X100.205 Y90.577 E2.11768
G1 X102.462 Y91.685 E2.20131
G1 X104.764 Y92.734 E2.28545
G1 X107.064 Y93.706 E2.3685
G1 X109.462 Y94.642 E2.45412
G1 X111.768 Y95.463 E2.53553
G1 X114.178 Y96.248 E2.61983
G1 X116.609 Y96.964 E2.70412
G1 X119.045 Y97.608 E2.78793
G1 X121.503 Y98.184 E2.87189
G1 X123.967 Y98.688 E2.95554
G1 X126.428 Y99.117 E3.03863
G1 X128.902 Y99.479 E3.12179
G1 X131.423 Y99.775 E3.20622
G1 X133.926 Y99.997 E3.28979
G1 X136.46 Y100.151 E3.37423
G1 X138.946 Y100.23 E3.45696
G1 X140.644 Y100.245 E3.51344
G1 X152.797 Y100.245 E3.91765
G1 X152.955 Y100.246 E3.9229
G1 X153.653 Y100.256 E3.94612
G1 X154.589 Y100.31 E3.9773
G1 X155.517 Y100.442 E4.00848
G1 X156.431 Y100.654 E4.03969
G1 X157.323 Y100.943 E4.07087
G1 X158.188 Y101.306 E4.10207
G1 X159.018 Y101.742 E4.13326
G1 X159.809 Y102.247 E4.16447
G1 X160.553 Y102.818 E4.19566
G1 X161.246 Y103.45 E4.22686
G1 X161.883 Y104.138 E4.25804
G1 X162.458 Y104.879 E4.28924
G1 X162.969 Y105.665 E4.32042
G1 X163.411 Y106.493 E4.35164
G1 X163.78 Y107.355 E4.38282
G1 X164.075 Y108.245 E4.41401
G1 X164.293 Y109.157 E4.4452
G1 X164.433 Y110.085 E4.47641
G1 X164.491 Y110.946 E4.50511
G1 X164.5 Y111.266 E4.51576
G1 X164.504 Y111.575 E4.52604
G1 X164.504 Y137.179 E5.37763
G1 X164.503 Y137.315 E5.38215
G1 X164.494 Y138.042 E5.40634
G1 X164.443 Y138.979 E5.43755
G1 X164.311 Y139.907 E5.46872
G1 X164.102 Y140.821 E5.49991
G1 X163.815 Y141.714 E5.53111
G1 X163.453 Y142.58 E5.56232
G1 X163.019 Y143.411 E5.59351
G1 X162.515 Y144.202 E5.6247
G1 X161.946 Y144.947 E5.65588
G1 X161.315 Y145.642 E5.6871
G1 X160.628 Y146.28 E5.71829
G1 X159.889 Y146.857 E5.74947
G1 X159.103 Y147.369 E5.78067
G1 X158.277 Y147.812 E5.81184
G1 X157.415 Y148.184 E5.84307
G1 X156.526 Y148.48 E5.87423
G1 X155.614 Y148.7 E5.90544
G1 X154.687 Y148.841 E5.93662
G1 X153.803 Y148.902 E5.9661
G1 X153.482 Y148.911 E5.97678
G1 X153.174 Y148.915 E5.98702
G1 X100.546 Y148.915 E7.73744
G1 X97.938 Y148.952 E7.82419
G1 X95.417 Y149.059 E7.90811
G1 X92.922 Y149.236 E7.9913
G1 X90.422 Y149.484 E8.07486
G1 X87.929 Y149.803 E8.15846
G1 X85.436 Y150.194 E8.24239
G1 X82.946 Y150.657 E8.32662
G1 X80.483 Y151.187 E8.41042
G1 X78.087 Y151.775 E8.49248
G1 X75.617 Y152.454 E8.57768
G1 X73.214 Y153.19 E8.66126
G1 X70.825 Y153.996 E8.74512
G1 X68.316 Y154.923 E8.83409
G1 X67.476 Y155.248 E8.86404
G1 X66.588 Y155.548 E8.89522
G1 X65.677 Y155.772 E8.92642
G1 X64.751 Y155.918 E8.9576
G1 X63.905 Y155.981 E8.98582
G1 X63.572 Y155.993 E8.9969
G1 X63.176 Y156 E9.01007
G1 X59.803 Y156 E9.12226
G1 X59.647 Y155.999 E9.12745
G1 X58.942 Y155.989 E9.1509
G1 X58.485 Y155.973 E9.16611
G1 X55.979 Y155.833 E9.24959
G1 X53.364 Y155.759 E9.3366
G1 X52.935 Y155.752 E9.35087
G1 X51.999 Y155.696 E9.38205
G1 X51.071 Y155.561 E9.41324
G1 X50.157 Y155.348 E9.44446
G1 X49.266 Y155.057 E9.47563
G1 X48.402 Y154.692 E9.50683
G1 X47.572 Y154.254 E9.53804
G1 X46.783 Y153.747 E9.56924
G1 X46.04 Y153.175 E9.60042
G1 X45.348 Y152.542 E9.63162
G1 X44.713 Y151.852 E9.66281
G1 X44.139 Y151.11 E9.69401
G1 X43.63 Y150.322 E9.72521
G1 X43.19 Y149.494 E9.75639
G1 X42.822 Y148.631 E9.7876
G1 X42.529 Y147.74 E9.8188
G1 X42.313 Y146.828 E9.84997
G1 X42.176 Y145.9 E9.88117
G1 X42.134 Y145.387 E9.89829
G1 X42.08 Y144.451 E9.92947
G1 X42.072 Y144.283 E9.93506
G1 X42.044 Y143.62 E9.95714
G1 X41.867 Y141.132 E10.0401
G1 X41.617 Y138.623 E10.12396
G1 X41.294 Y136.1 E10.20856
G1 X41.008 Y134.231 E10.27145
G1 X39.685 Y126.162 E10.54341
G1 X39.662 Y126.015 E10.54835
G1 X39.559 Y125.329 E10.57143
G1 X39.459 Y124.397 E10.6026
G1 X39.44 Y123.459 E10.63381
G1 X39.5 Y122.523 E10.665
G1 X39.697 Y121.321 E10.70551
G1 X39.958 Y120.143 E10.74564
G1 X40.483 Y117.615 E10.83152
G1 X40.928 Y115.123 E10.91572
G1 X41.304 Y112.617 E11
G1 X41.609 Y110.085 E11.08482
G1 X41.834 Y107.643 E11.16639
G1 X41.997 Y105.091 E11.25144
G1 X42.087 Y102.56 E11.33567
G1 X42.107 Y100.696 E11.39768
G1 X42.107 Y78.679 E12.12996
G1 X42.108 Y78.519 E12.13529
G1 X42.118 Y77.83 E12.1582
G1 X42.172 Y76.894 E12.18939
G1 X42.305 Y75.966 E12.22057
G1 X42.517 Y75.052 E12.25178
G1 X42.805 Y74.16 E12.28295
G1 X43.169 Y73.295 E12.31416
G1 X43.605 Y72.465 E12.34535
G1 X44.11 Y71.675 E12.37653
G1 X44.681 Y70.931 E12.40773
G1 X45.313 Y70.238 E12.43892
G1 X46.002 Y69.601 E12.47013
G1 X46.742 Y69.025 E12.50132
G0 F6000 X47.127 Y69.245
G1 F1200 X47.908 Y68.758 E12.53193
G1 X48.729 Y68.341 E12.56256
G1 X49.792 Y67.925 E12.60053
G1 X50.019 Y67.85 E12.60848
G1 X50.34 Y67.75 E12.61966
G1 X50.587 Y67.677 E12.62823
G1 X50.67 Y67.652 E12.63111
G1 X59.865 Y65.016 E12.94926
G1 X60.017 Y64.974 E12.9545
G1 X60.734 Y64.78 E12.97921
G1 X61.633 Y64.578 E13.00985
G1 X62.545 Y64.455 E13.04046
G1 X63.465 Y64.412 E13.07109
G1 X64.385 Y64.449 E13.10172
G1 X65.298 Y64.565 E13.13233
G1 X66.198 Y64.76 E13.16296
G1 X67.077 Y65.033 E13.19357
G1 X67.93 Y65.381 E13.22421
G1 X68.749 Y65.801 E13.25482
G1 X69.528 Y66.291 E13.28543
G1 X70.262 Y66.847 E13.31606
G1 X70.945 Y67.464 E13.34667
G1 X71.577 Y68.144 E13.37755
G1 X72.369 Y69.075 E13.4182
G1 X74.082 Y71.035 E13.50478
G1 X75.811 Y72.902 E13.58942
G1 X77.581 Y74.709 E13.67355
G1 X79.384 Y76.448 E13.75686
G1 X81.28 Y78.177 E13.84221
G1 X83.182 Y79.815 E13.92569
G1 X85.139 Y81.405 E14.00956
G1 X87.148 Y82.944 E14.09373
G1 X89.191 Y84.422 E14.1776
G1 X91.307 Y85.863 E14.26275
G1 X93.406 Y87.207 E14.34565
G1 X95.604 Y88.527 E14.43092
G1 X97.784 Y89.754 E14.51412
G1 X100.007 Y90.926 E14.59771
G1 X102.299 Y92.05 E14.68261
G1 X104.579 Y93.09 E14.76596
G1 X106.943 Y94.088 E14.85131
G1 X109.32 Y95.016 E14.93618
G1 X111.659 Y95.849 E15.01876
G1 X114.046 Y96.626 E15.10225
G1 X116.499 Y97.349 E15.18731
G1 X118.924 Y97.99 E15.27074
G1 X121.403 Y98.571 E15.35542
G1 X123.917 Y99.085 E15.44077
G1 X126.339 Y99.508 E15.52254
G1 X128.869 Y99.877 E15.60758
G1 X131.378 Y100.172 E15.69161
G1 X133.903 Y100.396 E15.77592
G1 X136.424 Y100.549 E15.85992
G1 X138.973 Y100.63 E15.94475
G1 X140.64 Y100.645 E16.00019
G1 X152.797 Y100.645 E16.40454
G1 X152.949 Y100.646 E16.40959
G1 X153.647 Y100.656 E16.43281
G1 X154.566 Y100.709 E16.46343
G1 X155.477 Y100.842 E16.49405
G1 X156.373 Y101.053 E16.52466
G1 X157.247 Y101.341 E16.55527
G1 X158.094 Y101.704 E16.58592
G1 X158.905 Y102.139 E16.61653
G1 X159.675 Y102.643 E16.64714
G1 X160.399 Y103.212 E16.67777
G1 X161.071 Y103.842 E16.7084
G1 X161.686 Y104.527 E16.73902
G1 X162.239 Y105.263 E16.76964
G1 X162.726 Y106.044 E16.80025
G1 X163.143 Y106.865 E16.83088
G1 X163.488 Y107.719 E16.86151
G1 X163.757 Y108.599 E16.89212
G1 X163.949 Y109.5 E16.92276
G1 X164.062 Y110.413 E16.95336
G1 X164.091 Y110.957 E16.97148
G1 X164.1 Y111.277 E16.98212
G1 X164.104 Y111.575 E16.99204
G1 X164.104 Y137.179 E17.84363
G1 X164.103 Y137.31 E17.84799
G1 X164.094 Y138.037 E17.87217
G1 X164.043 Y138.956 E17.90278
G1 X163.912 Y139.868 E17.93343
G1 X163.702 Y140.764 E17.96403
G1 X163.416 Y141.639 E17.99465
G1 X163.055 Y142.486 E18.02528
G1 X162.621 Y143.298 E18.0559
G1 X162.119 Y144.07 E18.08653
G1 X161.551 Y144.795 E18.11716
G1 X160.923 Y145.468 E18.14778
G1 X160.239 Y146.084 E18.17839
G1 X159.504 Y146.638 E18.209
G1 X158.724 Y147.127 E18.23962
G1 X157.904 Y147.546 E18.27025
G1 X157.051 Y147.892 E18.30087
G1 X156.171 Y148.163 E18.33149
G1 X155.271 Y148.356 E18.36211
G1 X154.357 Y148.471 E18.39275
G1 X153.792 Y148.502 E18.41157
G1 X153.471 Y148.511 E18.42225
G1 X153.174 Y148.515 E18.43213
G1 X100.54 Y148.515 E20.18274
G1 X97.915 Y148.552 E20.27006
G1 X95.407 Y148.659 E20.35355
G1 X92.887 Y148.837 E20.43757
G1 X90.372 Y149.086 E20.52163
G1 X87.883 Y149.405 E20.60509
G1 X85.331 Y149.806 E20.69101
G1 X82.9 Y150.258 E20.77326
G1 X80.401 Y150.796 E20.85828
G1 X77.965 Y151.393 E20.9417
G1 X75.499 Y152.071 E21.02676
G1 X73.106 Y152.804 E21.11
G1 X70.694 Y153.617 E21.19466
G1 X68.181 Y154.547 E21.28378
G1 X67.332 Y154.875 E21.31405
G1 X66.46 Y155.169 E21.34466
G1 X65.565 Y155.387 E21.3753
G1 X64.655 Y155.526 E21.40592
G1 X63.891 Y155.581 E21.43139
G1 X63.558 Y155.593 E21.44248
G1 X63.176 Y155.6 E21.45518
G1 X59.803 Y155.6 E21.56737
G1 X59.653 Y155.599 E21.57236
G1 X58.948 Y155.589 E21.59581
G1 X58.507 Y155.574 E21.61049
G1 X55.976 Y155.433 E21.6948
G1 X53.38 Y155.359 E21.78118
G1 X52.942 Y155.352 E21.79575
G1 X52.023 Y155.296 E21.82637
G1 X51.112 Y155.162 E21.857
G1 X50.216 Y154.949 E21.88763
G1 X49.342 Y154.659 E21.91825
G1 X48.497 Y154.294 E21.94887
G1 X47.687 Y153.857 E21.97948
G1 X46.917 Y153.352 E22.01011
G1 X46.194 Y152.781 E22.04075
G1 X45.524 Y152.15 E22.07136
G1 X44.911 Y151.464 E22.10196
G1 X44.359 Y150.726 E22.13261
G1 X43.874 Y149.944 E22.16322
G1 X43.458 Y149.122 E22.19386
G1 X43.116 Y148.268 E22.22446
G1 X42.848 Y147.387 E22.25508
G1 X42.659 Y146.486 E22.2857
G1 X42.534 Y145.364 E22.32325
G1 X42.48 Y144.428 E22.35444
G1 X42.472 Y144.267 E22.3598
G1 X42.444 Y143.613 E22.38157
G1 X42.267 Y141.112 E22.46496
G1 X42.014 Y138.569 E22.54996
G1 X41.695 Y136.073 E22.63365
G1 X41.393 Y134.106 E22.69984
G1 X40.08 Y126.097 E22.96978
G1 X40.057 Y125.956 E22.97453
G1 X39.954 Y125.27 E22.9976
G1 X39.857 Y124.354 E23.02824
G1 X39.84 Y123.434 E23.05884
G1 X39.903 Y122.515 E23.08948
G1 X40.087 Y121.407 E23.12684
G1 X40.347 Y120.232 E23.16686
G1 X40.882 Y117.661 E23.25421
G1 X41.325 Y115.175 E23.33819
G1 X41.697 Y112.693 E23.42167
G1 X42.004 Y110.152 E23.5068
G1 X42.233 Y107.669 E23.58973
G1 X42.397 Y105.094 E23.67555
G1 X42.486 Y102.579 E23.75925
G1 X42.507 Y100.696 E23.82188
G1 X42.507 Y78.679 E24.55417
G1 X42.508 Y78.525 E24.5593
G1 X42.518 Y77.836 E24.58221
G1 X42.571 Y76.917 E24.61283
G1 X42.704 Y76.006 E24.64345
G1 X42.916 Y75.11 E24.67408
G1 X43.204 Y74.236 E24.70468
G1 X43.567 Y73.39 E24.7353
G1 X44.002 Y72.578 E24.76594
G1 X44.506 Y71.808 E24.79655
G1 X45.075 Y71.084 E24.82718
G1 X45.705 Y70.412 E24.85781
G1 X46.39 Y69.798 E24.88841
G1 X47.127 Y69.245 E24.91905
G0 F6000 X47.51 Y69.469
G1 F1200 X48.286 Y69.007 E24.94909
G1 X49.099 Y68.615 E24.97911
G1 X49.917 Y68.305 E25.00821
G1 X50.144 Y68.23 E25.01616
G1 X50.453 Y68.133 E25.02693
G1 X50.7 Y68.06 E25.0355
G1 X50.78 Y68.037 E25.03827
G1 X59.975 Y65.401 E25.35641
G1 X60.122 Y65.36 E25.36149
G1 X60.839 Y65.166 E25.38619
G1 X61.72 Y64.969 E25.41622
G1 X62.616 Y64.851 E25.44628
G1 X63.518 Y64.812 E25.47631
G1 X64.42 Y64.853 E25.50634
G1 X65.315 Y64.974 E25.53638
G1 X66.196 Y65.174 E25.56642
G1 X67.055 Y65.451 E25.59644
G1 X67.887 Y65.802 E25.62648
G1 X68.685 Y66.226 E25.65653
G1 X69.442 Y66.719 E25.68658
G1 X70.152 Y67.277 E25.71661
G1 X70.81 Y67.895 E25.74664
G1 X71.272 Y68.403 E25.76948
G1 X72.082 Y69.355 E25.81105
G1 X73.786 Y71.304 E25.89716
G1 X75.514 Y73.171 E25.98177
G1 X77.3 Y74.994 E26.06665
G1 X79.119 Y76.749 E26.15072
G1 X80.995 Y78.459 E26.23515
G1 X82.931 Y80.127 E26.32014
G1 X84.893 Y81.721 E26.40422
G1 X86.893 Y83.253 E26.48801
G1 X88.978 Y84.761 E26.5736
G1 X91.072 Y86.187 E26.65786
G1 X93.191 Y87.544 E26.74155
G1 X95.397 Y88.868 E26.82712
G1 X97.608 Y90.113 E26.91152
G1 X99.824 Y91.281 E26.99484
G1 X102.135 Y92.415 E27.08045
G1 X104.436 Y93.464 E27.16456
G1 X106.79 Y94.459 E27.24957
G1 X109.136 Y95.374 E27.33332
G1 X111.549 Y96.233 E27.41851
G1 X113.947 Y97.014 E27.50239
G1 X116.39 Y97.734 E27.5871
G1 X118.836 Y98.38 E27.67124
G1 X121.304 Y98.959 E27.75556
G1 X123.84 Y99.478 E27.84165
G1 X126.283 Y99.904 E27.92413
G1 X128.836 Y100.277 E28.00995
G1 X131.328 Y100.57 E28.0934
G1 X133.879 Y100.796 E28.17858
G1 X136.386 Y100.948 E28.26212
G1 X138.958 Y101.03 E28.34771
G1 X140.636 Y101.045 E28.40352
G1 X152.797 Y101.045 E28.808
G1 X152.943 Y101.046 E28.81285
G1 X153.641 Y101.056 E28.83607
G1 X154.543 Y101.109 E28.86612
G1 X155.436 Y101.241 E28.89615
G1 X156.314 Y101.452 E28.92618
G1 X157.17 Y101.74 E28.95622
G1 X157.997 Y102.102 E28.98625
G1 X158.789 Y102.537 E29.0163
G1 X159.54 Y103.039 E29.04635
G1 X160.243 Y103.606 E29.07638
G1 X160.893 Y104.233 E29.10642
G1 X161.485 Y104.915 E29.13646
G1 X162.015 Y105.646 E29.16649
G1 X162.477 Y106.422 E29.19653
G1 X162.87 Y107.235 E29.22656
G1 X163.188 Y108.08 E29.25659
G1 X163.431 Y108.95 E29.28664
G1 X163.596 Y109.838 E29.31668
G1 X163.691 Y110.968 E29.35439
G1 X163.7 Y111.288 E29.36504
G1 X163.704 Y111.575 E29.37459
G1 X163.704 Y137.179 E30.22618
G1 X163.703 Y137.305 E30.23037
G1 X163.694 Y138.032 E30.25455
G1 X163.643 Y138.934 E30.2846
G1 X163.512 Y139.828 E30.31465
G1 X163.303 Y140.706 E30.34467
G1 X163.017 Y141.563 E30.37472
G1 X162.656 Y142.391 E30.40476
G1 X162.224 Y143.183 E30.43477
G1 X161.723 Y143.935 E30.46482
G1 X161.157 Y144.639 E30.49487
G1 X160.532 Y145.29 E30.52488
G1 X159.851 Y145.884 E30.55494
G1 X159.12 Y146.415 E30.58499
G1 X158.346 Y146.879 E30.615
G1 X157.533 Y147.273 E30.64505
G1 X156.689 Y147.593 E30.67507
G1 X155.819 Y147.838 E30.70514
G1 X154.932 Y148.004 E30.73515
G1 X153.781 Y148.102 E30.77357
G1 X153.46 Y148.111 E30.78425
G1 X153.174 Y148.115 E30.79377
G1 X100.534 Y148.115 E32.54458
G1 X97.928 Y148.152 E32.63126
G1 X95.363 Y148.261 E32.71665
G1 X92.856 Y148.439 E32.80025
G1 X90.315 Y148.69 E32.88517
G1 X87.807 Y149.011 E32.96927
G1 X85.302 Y149.405 E33.05361
G1 X82.815 Y149.867 E33.13774
G1 X80.294 Y150.41 E33.22351
G1 X77.869 Y151.005 E33.30656
G1 X75.403 Y151.682 E33.39162
G1 X72.976 Y152.425 E33.47604
G1 X70.576 Y153.235 E33.56028
G1 X67.965 Y154.201 E33.65288
G1 X67.188 Y154.501 E33.68058
G1 X66.332 Y154.79 E33.71063
G1 X65.454 Y155.001 E33.74067
G1 X64.561 Y155.134 E33.77069
G1 X63.876 Y155.181 E33.79353
G1 X63.543 Y155.193 E33.80461
G1 X63.176 Y155.2 E33.81682
G1 X59.803 Y155.2 E33.92901
G1 X59.658 Y155.199 E33.93383
